X:289
T:Glenelg
R:Strathspey
B:The Athole Collection
M:C
L:1/8
K:D
F|D>F A<B d>B A<f|d<B d>F E2 E<F|D>F A<B d>B A<B|d<fe<f d2d:|
f/g/|a<d f>d a<dg<b|a<d a>f e2 ef/g/|a>df>d a<d g>b|a<d a>f d2 df/g/|
a<d f>d a<dg<b|a<d a>f e2 ef/g/|a>fg>e f>de>c|d>BA>F D2D||

